exported-svg/bluetooth.svg

<svg height="24" viewBox="0 0 24 24" width="24" xmlns="http://www.w3.org/2000/svg"><path d="m16.7928932 18.0010024-4.2928932 4.2928932v-8.5857864zm-4.2928932-15.29289324 4.2928932 4.29289322-4.2928932 4.29289322zm-6.35355339 14.93933984c-.19526215.1952621-.19526215.5118446 0 .7071068.19526215.1952621.51184463.1952621.70710678 0l4.64644661-4.6464466v9.7928932c0 .4454524.538571.6685358.8535534.3535534l5.5-5.5c.1952621-.1952622.1952621-.5118447 0-.7071068l-5.1464466-5.1464466 5.1464466-5.14644663c.1952621-.19526215.1952621-.51184464 0-.70710678l-5.5-5.5c-.3149824-.31498243-.8535534-.09189904-.8535534.35355339v9.79289322l-4.64644661-4.64644661c-.19526215-.19526215-.51184463-.19526215-.70710678 0-.19526215.19526214-.19526215.51184463 0 .70710678l5.14644659 5.14644663z"/></svg>

<?xml version="1.0" encoding="UTF-8"?>
<svg width="24px" height="24px" viewBox="0 0 24 24" version="1.1" xmlns="http://www.w3.org/2000/svg" xmlns:xlink="http://www.w3.org/1999/xlink">
    <!-- Generator: Sketch 55.2 (78181) - https://sketchapp.com -->
    <title>bluetooth</title>
    <desc>Created with Sketch.</desc>
    <g id="bluetooth" stroke="none" stroke-width="1" fill="none" fill-rule="evenodd">
        <path d="M16.7928932,18.0010024 L12.5,22.2938956 L12.5,13.7081092 L16.7928932,18.0010024 Z M12.5,2.70810916 L16.7928932,7.00100238 L12.5,11.2938956 L12.5,2.70810916 Z M6.14644661,17.647449 C5.95118446,17.8427111 5.95118446,18.1592936 6.14644661,18.3545558 C6.34170876,18.5498179 6.65829124,18.5498179 6.85355339,18.3545558 L11.5,13.7081092 L11.5,23.5010024 C11.5,23.9464548 12.038571,24.1695382 12.3535534,23.8545558 L17.8535534,18.3545558 C18.0488155,18.1592936 18.0488155,17.8427111 17.8535534,17.647449 L12.7071068,12.5010024 L17.8535534,7.35455577 C18.0488155,7.15929362 18.0488155,6.84271113 17.8535534,6.64744899 L12.3535534,1.14744899 C12.038571,0.832466556 11.5,1.05554995 11.5,1.50100238 L11.5,11.2938956 L6.85355339,6.64744899 C6.65829124,6.45218684 6.34170876,6.45218684 6.14644661,6.64744899 C5.95118446,6.84271113 5.95118446,7.15929362 6.14644661,7.35455577 L11.2928932,12.5010024 L6.14644661,17.647449 Z" id="Shape" fill="#000000" fill-rule="nonzero"></path>
    </g>
</svg>
